app/dist/common/images/headlam-plc.svg

<svg height="18" viewBox="0 0 18 18" width="18" xmlns="http://www.w3.org/2000/svg"><path d="m0 0h18v18h-18z" fill="#16143b"/><path d="m7.5 4-1.5.32v7.68h1.5v-3.52c0-.32.2-.98 1-.98s1 .66 1 .98v3.52h1.5v-3.52c0-1.48-.67-2.48-2-2.48-1.07 0-1.39.34-1.5.5z" fill="#fff"/><path d="m11.5 13h-6.5l.65.73c.18.17.41.27.66.27h5.2c.17 0 .32-.06.44-.18l.87-.86a.6.6 0 0 0 .18-.43v-4.24a.9.9 0 0 0 -.27-.64l-.73-.65v5.5c0 .37 0 .5-.5.5z" fill="#dd3f00"/></svg>

<!-- by TradingView --><svg width="18" height="18" viewBox="0 0 18 18" xmlns="http://www.w3.org/2000/svg"><path fill="#16143B" d="M0 0h18v18H0z"/><path d="M7.5 4 6 4.32V12h1.5V8.48c0-.32.2-.98 1-.98s1 .66 1 .98V12H11V8.48C11 7 10.33 6 9 6c-1.07 0-1.39.34-1.5.5V4Z" fill="#fff"/><path d="M11.5 13H5l.65.73c.18.17.41.27.66.27h5.2c.17 0 .32-.06.44-.18l.87-.86a.6.6 0 0 0 .18-.43V8.29a.9.9 0 0 0-.27-.64L12 7v5.5c0 .37 0 .5-.5.5Z" fill="#DD3F00"/></svg>
